X: 1
T: Skullbr\"adleken
O: efter Paul Dahlin & Robert Martinson
R: g\aangl\aat
N: Extra beats in both endings and in one bar of the second part.
Z: 1997 by John Chambers <jc@trillian.mit.edu>
M: 2/4
L: 1/16
K: A
|: E2 \
| "A"A2AB c2cd | efed cBAG | A2Ae dBGB | A2AE CA,CE | A2AE CA,CE | A2AB c2cd |
| efed c2ce | ~f2ef e2ea | efed cBAG | (G2A2) A4- A2 :: Ac | d2fd B2-Ba | gabg ecAc | d2fd B2-Ba |
| gabg eceg | b2~a2 f2df | e2-ef edcB | A2Ac A2Ac | BABc d2B2 | G2B2 G2B2 | AGAB c2A2 |
| A2Ac e2eg e2eg | ~a2f2 d2df | {f}e2ef edBG | A2AG ABcd | efed cBAG | (G2A2) A4- A2 :|
